projects/seb-pictograms/svg/light/39-Picto-Light_black.svg

<svg xmlns="http://www.w3.org/2000/svg" viewBox="0 0 170 170"><path d="M162 32.9H8a1.5 1.5 0 00-1.5 1.5v101.2a1.5 1.5 0 001.5 1.5h154a1.5 1.5 0 001.5-1.5V34.4a1.5 1.5 0 00-1.5-1.5zM85 96.1A11.1 11.1 0 1196.1 85 11.1 11.1 0 0185 96.1zm-75.5-32h21.2v41.8H9.5zm0 44.8h22.7a1.5 1.5 0 001.5-1.5V62.6a1.5 1.5 0 00-1.5-1.5H9.5V35.9h74V71a14.1 14.1 0 000 28v35.1h-74zm77 25.2V99a14.1 14.1 0 000-28V35.9h74v25.2h-22.7a1.5 1.5 0 00-1.5 1.5v44.8a1.5 1.5 0 001.5 1.5h22.7v25.2zm74-70v41.8h-21.2V64.1z"/></svg>

<svg id="PIKTO_LIGHT" xmlns="http://www.w3.org/2000/svg" viewBox="0 0 170 170"><title>light_black</title><path d="M162,32.9H8a1.5,1.5,0,0,0-1.5,1.5V135.6A1.5,1.5,0,0,0,8,137.1H162a1.5,1.5,0,0,0,1.5-1.5V34.4A1.5,1.5,0,0,0,162,32.9ZM85,96.1A11.1,11.1,0,1,1,96.1,85,11.1,11.1,0,0,1,85,96.1ZM9.5,64.1H30.7v41.8H9.5Zm0,44.8H32.2a1.5,1.5,0,0,0,1.5-1.5V62.6a1.5,1.5,0,0,0-1.5-1.5H9.5V35.9h74V71a14.1,14.1,0,0,0,0,28v35.1H9.5Zm77,25.2V99a14.1,14.1,0,0,0,0-28V35.9h74V61.1H137.8a1.5,1.5,0,0,0-1.5,1.5v44.8a1.5,1.5,0,0,0,1.5,1.5h22.7v25.2Zm74-70v41.8H139.3V64.1Z"/></svg>
